dist/img/sprites/hHouse.svg

<svg width="32" height="32" viewBox="0 0 32 32" fill="none" xmlns="http://www.w3.org/2000/svg">
<g clip-path="url(#clip0_730_5331)">
<path d="M29.7998 10.73L16.5598 0.200005C16.2298 -0.0599951 15.7698 -0.0599951 15.4398 0.200005L2.19984 10.73C1.96984 10.91 1.83984 11.19 1.83984 11.48V28.04C1.83984 29.1 2.23984 30.1 2.97984 30.85C3.69984 31.58 4.68984 32.01 5.70984 32.01H26.2998C27.3098 32.01 28.3098 31.59 29.0298 30.85C29.7598 30.1 30.1598 29.1 30.1598 28.04V11.48C30.1598 11.19 30.0298 10.9 29.7998 10.73ZM19.4898 17.5V29.54C19.4898 29.85 19.2398 30.09 18.9398 30.09H13.0498C12.7398 30.09 12.4998 29.84 12.4998 29.54V17.5C12.4998 17.19 12.7498 16.95 13.0498 16.95H18.9398C19.2498 16.95 19.4898 17.2 19.4898 17.5ZM20.4098 15.04H11.5898C11.0798 15.04 10.6698 15.47 10.6698 15.99V29.53C10.6698 29.84 10.4198 30.08 10.1198 30.08H5.69984C5.15984 30.08 4.63984 29.86 4.25984 29.47C3.87984 29.08 3.66984 28.57 3.66984 28.02V12.22C3.66984 12.05 3.74984 11.89 3.87984 11.79L15.6598 2.42C15.8598 2.26 16.1498 2.26 16.3498 2.42L28.1198 11.78C28.2498 11.89 28.3298 12.04 28.3298 12.21V28.03C28.3298 28.58 28.1198 29.09 27.7398 29.48C27.3598 29.87 26.8498 30.09 26.2998 30.09H21.8898C21.5798 30.09 21.3398 29.84 21.3398 29.54V16C21.3398 15.48 20.9298 15.05 20.4198 15.05L20.4098 15.04Z" fill="#4B8125"/>
</g>
<defs>
<clipPath id="clip0_730_5331">
<rect width="32" height="32" fill="white"/>
</clipPath>
</defs>
</svg>

<svg width="32" height="32" viewBox="0 0 32 32" fill="none" xmlns="http://www.w3.org/2000/svg"><g clip-path="url(#clip0_730_5331)"><path d="M29.8 10.73L16.56.2a.902.902 0 00-1.12 0L2.2 10.73c-.23.18-.36.46-.36.75v16.56c0 1.06.4 2.06 1.14 2.81.72.73 1.71 1.16 2.73 1.16H26.3c1.01 0 2.01-.42 2.73-1.16.73-.75 1.13-1.75 1.13-2.81V11.48c0-.29-.13-.58-.36-.75zM19.49 17.5v12.04c0 .31-.25.55-.55.55h-5.89c-.31 0-.55-.25-.55-.55V17.5c0-.31.25-.55.55-.55h5.89c.31 0 .55.25.55.55zm.92-2.46h-8.82c-.51 0-.92.43-.92.95v13.54c0 .31-.25.55-.55.55H5.7c-.54 0-1.06-.22-1.44-.61-.38-.39-.59-.9-.59-1.45v-15.8c0-.17.08-.33.21-.43l11.78-9.37c.2-.16.49-.16.69 0l11.77 9.36c.13.11.21.26.21.43v15.82c0 .55-.21 1.06-.59 1.45-.38.39-.89.61-1.44.61h-4.41c-.31 0-.55-.25-.55-.55V16c0-.52-.41-.95-.92-.95l-.01-.01z" fill="#4B8125"/></g><defs><clipPath id="clip0_730_5331"><path fill="#fff" d="M0 0h32v32H0z"/></clipPath></defs></svg>
